gama.ui.shared/icons_svg/light/navigator/new.project2.svg

<svg height="25" viewBox="-190.266 -3710.75 25 25" width="25" xmlns="http://www.w3.org/2000/svg"><g fill="none"><path d="m-185.92599-3710.25h16.32c2.12078 0 3.84 1.7192 3.84 3.84v16.32c0 2.1208-1.71922 3.84-3.84 3.84h-16.32c-2.12077 0-3.84-1.7192-3.84-3.84v-16.32c0-2.1208 1.71923-3.84 3.84-3.84z" fill="#fff"/><path d="m-185.92599-3710.25h16.32c2.12078 0 3.84 1.7192 3.84 3.84v16.32c0 2.1208-1.71922 3.84-3.84 3.84h-16.32c-2.12077 0-3.84-1.7192-3.84-3.84v-16.32c0-2.1208 1.71923-3.84 3.84-3.84z" stroke="#000" stroke-linecap="round" stroke-linejoin="round" stroke-width=".25"/><g fill="#528637"><path d="m-179.02764-3698v2c0 .221-.17909.4-.4.4-.22092 0-.4-.179-.4-.4v-2h-2c-.22092 0-.4-.179-.4-.4s.17908-.4.4-.4h2v-2c0-.221.17908-.4.4-.4.22091 0 .4.179.4.4v2h2c.22091 0 .4.179.4.4s-.17909.4-.4.4zm-6-8h5.2c.88365 0 1.6.7163 1.6 1.6 0 .442.35817.8.8.8h4.4c1.10457 0 2 .8954 2 2v6.4c0 1.1046-.89543 2-2 2h-12c-1.10456 0-2-.8954-2-2v-8.8c0-1.1046.89544-2 2-2zm0 .8c-.66274 0-1.2.5372-1.2 1.2v8.8c0 .6627.53726 1.2 1.2 1.2h12c.66274 0 1.2-.5373 1.2-1.2v-6.4c0-.6628-.53726-1.2-1.2-1.2h-4.4c-.88366 0-1.6-.7164-1.6-1.6 0-.442-.35817-.8-.8-.8z"/><path d="m-177.20843-3693.04c.07336.0856.18238.14.3041.14.12171 0 .23073-.0544.3041-.14zm-7.2959 0v.54c0 1.1046.89543 2 2 2h12c1.10457 0 2-.8954 2-2v-6.4c0-1.1046-.89543-2-2-2h-.31837v.8h.31837c.66273 0 1.2.5373 1.2 1.2v6.4c0 .6628-.53727 1.2-1.2 1.2h-12c-.66274 0-1.2-.5372-1.2-1.2v-.54z"/></g></g></svg>

<?xml version="1.0" encoding="UTF-8" standalone="no"?>
<!DOCTYPE svg PUBLIC "-//W3C//DTD SVG 1.1//EN" "http://www.w3.org/Graphics/SVG/1.1/DTD/svg11.dtd">
<svg version="1.1" xmlns="http://www.w3.org/2000/svg" xmlns:xl="http://www.w3.org/1999/xlink" xmlns:dc="http://purl.org/dc/elements/1.1/" viewBox="-190.26599 -3710.75 25 25" width="25" height="25">
  <defs/>
  <g id="SOURCES" stroke-dasharray="none" fill="none" stroke="none" fill-opacity="1" stroke-opacity="1">
    <title>SOURCES</title>
    <g id="SOURCES_Calque_1">
      <title>Calque 1</title>
      <g id="Graphic_6374">
        <title>views/view.other</title>
        <path d="M -185.92599 -3710.25 L -169.60599 -3710.25 C -167.48521 -3710.25 -165.76599 -3708.5308 -165.76599 -3706.41 L -165.76599 -3690.09 C -165.76599 -3687.9692 -167.48521 -3686.25 -169.60599 -3686.25 L -185.92599 -3686.25 C -188.04676 -3686.25 -189.76599 -3687.9692 -189.76599 -3690.09 L -189.76599 -3706.41 C -189.76599 -3708.5308 -188.04676 -3710.25 -185.92599 -3710.25 Z" fill="white"/>
        <path d="M -185.92599 -3710.25 L -169.60599 -3710.25 C -167.48521 -3710.25 -165.76599 -3708.5308 -165.76599 -3706.41 L -165.76599 -3690.09 C -165.76599 -3687.9692 -167.48521 -3686.25 -169.60599 -3686.25 L -185.92599 -3686.25 C -188.04676 -3686.25 -189.76599 -3687.9692 -189.76599 -3690.09 L -189.76599 -3706.41 C -189.76599 -3708.5308 -188.04676 -3710.25 -185.92599 -3710.25 Z" stroke="black" stroke-linecap="round" stroke-linejoin="round" stroke-width=".25"/>
      </g>
      <g id="Group_6381">
        <g id="Graphic_6375">
          <path d="M -179.02764 -3698 L -179.02764 -3696 C -179.02764 -3695.779 -179.20673 -3695.6 -179.42764 -3695.6 C -179.64856 -3695.6 -179.82764 -3695.779 -179.82764 -3696 L -179.82764 -3698 L -181.82764 -3698 C -182.04856 -3698 -182.22764 -3698.179 -182.22764 -3698.4 C -182.22764 -3698.621 -182.04856 -3698.8 -181.82764 -3698.8 L -179.82764 -3698.8 L -179.82764 -3700.8 C -179.82764 -3701.021 -179.64856 -3701.2 -179.42764 -3701.2 C -179.20673 -3701.2 -179.02764 -3701.021 -179.02764 -3700.8 L -179.02764 -3698.8 L -177.02764 -3698.8 C -176.80673 -3698.8 -176.62764 -3698.621 -176.62764 -3698.4 C -176.62764 -3698.179 -176.80673 -3698 -177.02764 -3698 Z M -185.02764 -3706 L -179.82764 -3706 C -178.94399 -3706 -178.22764 -3705.2837 -178.22764 -3704.4 C -178.22764 -3703.958 -177.86947 -3703.6 -177.42764 -3703.6 L -173.02764 -3703.6 C -171.92307 -3703.6 -171.02764 -3702.7046 -171.02764 -3701.6 L -171.02764 -3695.2 C -171.02764 -3694.0954 -171.92307 -3693.2 -173.02764 -3693.2 L -185.02764 -3693.2 C -186.1322 -3693.2 -187.02764 -3694.0954 -187.02764 -3695.2 L -187.02764 -3704 C -187.02764 -3705.1046 -186.1322 -3706 -185.02764 -3706 Z M -185.02764 -3705.2 C -185.69038 -3705.2 -186.22764 -3704.6628 -186.22764 -3704 L -186.22764 -3695.2 C -186.22764 -3694.5373 -185.69038 -3694 -185.02764 -3694 L -173.02764 -3694 C -172.3649 -3694 -171.82764 -3694.5373 -171.82764 -3695.2 L -171.82764 -3701.6 C -171.82764 -3702.2628 -172.3649 -3702.8 -173.02764 -3702.8 L -177.42764 -3702.8 C -178.3113 -3702.8 -179.02764 -3703.5164 -179.02764 -3704.4 C -179.02764 -3704.842 -179.38581 -3705.2 -179.82764 -3705.2 Z" fill="#528637"/>
        </g>
        <g id="Graphic_6380">
          <path d="M -177.20843 -3693.04 C -177.13507 -3692.9544 -177.02605 -3692.9 -176.90433 -3692.9 C -176.78262 -3692.9 -176.6736 -3692.9544 -176.60023 -3693.04 Z M -184.50433 -3693.04 L -184.50433 -3692.5 C -184.50433 -3691.3954 -183.6089 -3690.5 -182.50433 -3690.5 L -170.50433 -3690.5 C -169.39976 -3690.5 -168.50433 -3691.3954 -168.50433 -3692.5 L -168.50433 -3698.9 C -168.50433 -3700.0046 -169.39976 -3700.9 -170.50433 -3700.9 L -170.8227 -3700.9 L -170.8227 -3700.1 L -170.50433 -3700.1 C -169.8416 -3700.1 -169.30433 -3699.5627 -169.30433 -3698.9 L -169.30433 -3692.5 C -169.30433 -3691.8372 -169.8416 -3691.3 -170.50433 -3691.3 L -182.50433 -3691.3 C -183.16707 -3691.3 -183.70433 -3691.8372 -183.70433 -3692.5 L -183.70433 -3693.04 Z" fill="#528637"/>
        </g>
      </g>
    </g>
  </g>
</svg>
